packages/ui-icons/svg/Line/commons.svg

<svg viewBox="0 0 1920 1920" version="1.1" xmlns="http://www.w3.org/2000/svg">
    <path d="M715.925665,1409.20256 C465.79765,1409.20256 262.832119,1207.42628 262.832119,959.559245 C262.832119,711.957107 467.318627,509.91593 717.713638,509.91593 L990.537375,509.91593 L990.537375,352.174918 L715.925665,352.174918 C379.45569,352.174918 105.174918,624.503057 105.174918,959.559245 C105.174918,1294.61319 379.456948,1566.94357 715.925665,1566.94357 L988.749401,1566.94357 L988.749401,1409.20256 L715.925665,1409.20256 Z M368.007037,959.559245 C368.007037,1149.20097 523.746245,1304.02764 715.925665,1304.02764 L1093.92432,1304.02764 L1093.92432,1672.11849 L715.925665,1672.11849 C321.537905,1672.11849 0,1352.86848 0,959.559245 C0,566.247679 321.536733,247 715.925665,247 L1095.71229,247 L1095.71229,615.090848 L717.713638,615.090848 C525.123781,615.090848 368.007037,770.328728 368.007037,959.559245 Z M1358.54441,603.995571 L1358.54441,854.756138 L742.745269,854.756138 C684.181187,854.756138 637.991051,900.960481 637.991051,959.559245 C637.991051,1018.15801 684.181187,1064.36235 742.745269,1064.36235 L1358.54441,1064.36235 L1358.54441,1315.12292 L1761.12212,959.559245 L1358.54441,603.995571 Z M1253.36949,370.779519 L1920,959.559245 L1253.36949,1548.33897 L1253.36949,1169.53727 L742.745269,1169.53727 C626.087442,1169.53727 532.816133,1076.23727 532.816133,959.559245 C532.816133,842.881218 626.087442,749.58122 742.745269,749.58122 L1253.36949,749.58122 L1253.36949,370.779519 Z" fill-rule="nonzero" stroke="none" stroke-width="1"/>
</svg>

<svg viewBox="0 0 1920 1920" version="1.1" xmlns="http://www.w3.org/2000/svg">
    <path d="M715.926 1409.203c-250.128 0-453.094-201.777-453.094-449.644 0-247.602 204.487-449.643 454.882-449.643h272.823V352.175H715.926c-336.47 0-610.751 272.328-610.751 607.384 0 335.054 274.282 607.385 610.75 607.385H988.75v-157.741H715.926zM368.007 959.559c0 189.642 155.74 344.469 347.919 344.469h377.998v368.09H715.926C321.538 1672.118 0 1352.868 0 959.56 0 566.248 321.537 247 715.926 247h379.786v368.09H717.714c-192.59 0-349.707 155.239-349.707 344.47zm990.537-355.563v250.76H742.745c-58.564 0-104.754 46.204-104.754 104.803s46.19 104.803 104.754 104.803h615.8v250.76l402.577-355.563-402.578-355.563zM1253.37 370.78L1920 959.56l-666.63 588.779v-378.802H742.744c-116.658 0-209.929-93.3-209.929-209.978 0-116.678 93.271-209.978 209.93-209.978h510.623V370.78z" fill-rule="nonzero" stroke="none" stroke-width="1"/>
</svg>
